img/icones/dec-experiencia.svg

<svg width="102" height="100" viewBox="0 0 102 100" fill="none" xmlns="http://www.w3.org/2000/svg">
<path d="M40.4507 7.65932C40.4507 6.58526 41.3989 5.70843 42.5601 5.70843C43.7214 5.70843 44.6695 6.58532 44.6695 7.65932C44.6695 8.73332 43.7214 9.61022 42.5601 9.61022C41.398 9.61022 40.4507 8.73332 40.4507 7.65932V7.65932ZM29.8428 30.9895L22.1684 37.4301L19.6772 35.1253C18.9963 34.4956 17.8923 34.4956 17.2114 35.1253C16.5306 35.7551 16.5305 36.7762 17.2114 37.4058L20.8768 40.7957C21.2164 41.1099 21.6635 41.268 22.1097 41.268C22.5289 41.268 22.9481 41.1297 23.2806 40.8494L32.1847 33.3758C32.8982 32.777 32.9523 31.7573 32.3048 31.0974C31.6581 30.4404 30.5557 30.3904 29.8429 30.9893L29.8428 30.9895ZM39.9917 33.6187H66.6775C67.6408 33.6187 68.4211 32.897 68.4211 32.0061C68.4211 31.1153 67.6408 30.3936 66.6775 30.3936L39.9917 30.3929C39.0285 30.3929 38.2482 31.1145 38.2482 32.0054C38.2482 32.897 39.0285 33.6187 39.9917 33.6187V33.6187ZM66.6775 37.8672H39.9917C39.0285 37.8672 38.2482 38.5889 38.2482 39.4798C38.2482 40.3707 39.0285 41.0923 39.9917 41.0923H66.6775C67.6408 41.0923 68.4211 40.3707 68.4211 39.4798C68.4211 38.5889 67.6408 37.8672 66.6775 37.8672ZM66.6775 50.7148H39.9917C39.0285 50.7148 38.2482 51.4365 38.2482 52.3274C38.2482 53.2183 39.0285 53.9399 39.9917 53.9399H66.6775C67.6408 53.9399 68.4211 53.2183 68.4211 52.3274C68.4211 51.4365 67.6408 50.7148 66.6775 50.7148ZM66.6775 58.1884H39.9917C39.0285 58.1884 38.2482 58.9101 38.2482 59.801C38.2482 60.6919 39.0285 61.4136 39.9917 61.4136H66.6775C67.6408 61.4136 68.4211 60.6919 68.4211 59.801C68.4211 58.9101 67.6408 58.1884 66.6775 58.1884ZM29.8428 51.1335L22.1684 57.5741L19.6772 55.2693C18.9963 54.6396 17.8923 54.6396 17.2114 55.2693C16.5306 55.8991 16.5305 56.9202 17.2114 57.5498L20.8768 60.9397C21.2164 61.2539 21.6635 61.412 22.1097 61.412C22.5289 61.412 22.9481 61.2737 23.2806 60.9934L32.1847 53.5198C32.8982 52.921 32.9523 51.9013 32.3048 51.2414C31.6581 50.5837 30.5557 50.5344 29.8429 51.1332L29.8428 51.1335ZM29.8428 71.456L22.1684 77.8966L19.6772 75.5919C18.9963 74.9621 17.8923 74.9621 17.2114 75.5919C16.5306 76.2216 16.5305 77.2427 17.2114 77.8723L20.8768 81.2623C21.2164 81.5764 21.6635 81.7345 22.1097 81.7345C22.5289 81.7345 22.9481 81.5962 23.2806 81.3159L32.1847 73.8423C32.8982 73.2435 32.9523 72.2239 32.3048 71.5639C31.6581 70.907 30.5557 70.857 29.8429 71.4558L29.8428 71.456ZM101.136 36.1067L85.1174 61.7665V94.0479C85.1174 97.3297 82.2308 100 78.6817 100H6.43573C2.88727 100 0 97.3303 0 94.0479L0.00079543 14.2135C0.00079543 10.9317 2.88746 8.26141 6.43653 8.26141H22.754V7.25281C22.754 6.36193 23.5343 5.64025 24.4976 5.64025H33.5361C34.991 2.26277 38.5259 0 42.5588 0C46.5917 0 50.1265 2.26427 51.5814 5.64025H60.62C61.5833 5.64025 62.3636 6.36193 62.3636 7.25281V8.26214H78.6811C82.2295 8.26214 85.1168 10.9319 85.1168 14.2143V34.3391L88.2944 29.2491C89.1567 27.8683 90.5511 26.8795 92.2223 26.4654C93.8935 26.0512 95.6363 26.2624 97.1294 27.0598L98.7663 27.933C101.856 29.5831 102.918 33.249 101.135 36.1056L101.136 36.1067ZM62.3646 11.4903V14.3005H76.847C77.8103 14.3005 78.5906 15.0222 78.5906 15.9131V44.7952L81.6291 39.9288V14.2163C81.6291 12.7133 80.3071 11.4906 78.682 11.4906L62.3646 11.4903ZM72.1356 73.7479L67.5468 71.2982V76.1977L72.1356 73.7479ZM75.1033 50.382V17.5262H62.3644V18.5356C62.3644 19.4264 61.5841 20.1481 60.6208 20.1481H24.4989C23.5356 20.1481 22.7553 19.4264 22.7553 18.5356V17.5262H10.0164V90.7389L75.1027 90.7382V75.8889L68.2937 79.5253C68.3748 79.7107 68.4194 79.913 68.4194 80.1263C68.4194 81.0172 67.6391 81.7389 66.6758 81.7389H39.9901C39.0268 81.7389 38.2465 81.0172 38.2465 80.1263C38.2465 79.2355 39.0268 78.5138 39.9901 78.5138H64.0591V74.2653H39.9901C39.0268 74.2653 38.2465 73.5436 38.2465 72.6527C38.2465 71.7618 39.0268 71.0402 39.9901 71.0402H64.0591V68.5066C64.0591 68.2263 64.1411 67.9431 64.293 67.7003L75.1033 50.382ZM26.2422 16.9236H58.876V8.86877H50.3115C49.5066 8.86877 48.805 8.35823 48.6165 7.6336C47.9404 5.03975 45.4498 3.2284 42.5593 3.2284C39.6696 3.2284 37.1781 5.04033 36.5021 7.6336C36.3136 8.35749 35.612 8.86877 34.807 8.86877H26.2426L26.2434 16.9236H26.2422ZM81.6296 67.3542L78.5911 72.2206V92.3529C78.5911 93.2438 77.8108 93.9655 76.8475 93.9655H8.27095C7.30768 93.9655 6.52737 93.2438 6.52737 92.3529V15.9141C6.52737 15.0232 7.30768 14.3016 8.27095 14.3016H22.7533V11.4913H6.43583C4.81076 11.4913 3.48869 12.714 3.48869 14.217V94.0495C3.48869 95.5524 4.8107 96.7752 6.43583 96.7752H78.6818C80.3069 96.7752 81.6289 95.5525 81.6289 94.0495L81.6281 67.3539L81.6296 67.3542ZM98.4078 32.4061C98.201 31.6932 97.7094 31.0973 97.0229 30.731L95.3859 29.8578C94.6994 29.4907 93.8961 29.3943 93.1252 29.5856C92.3544 29.7768 91.7101 30.2315 91.314 30.8664L68.1857 67.9162L74.9851 71.5466L98.1155 34.4968C98.5108 33.8619 98.6158 33.1196 98.409 32.4067L98.4078 32.4061Z" fill="#F0F0F0"/>
</svg>

<svg width="102" height="100" fill="none" xmlns="http://www.w3.org/2000/svg"><path d="M40.45 7.66c0-1.075.949-1.952 2.11-1.952s2.11.877 2.11 1.951-.949 1.951-2.11 1.951c-1.162 0-2.11-.877-2.11-1.95ZM29.844 30.99l-7.675 6.44-2.49-2.305a1.845 1.845 0 0 0-2.467 0c-.68.63-.68 1.651 0 2.28l3.666 3.39c.34.315.787.473 1.233.473.419 0 .838-.138 1.17-.419l8.905-7.473c.713-.599.767-1.619.12-2.279-.647-.657-1.75-.707-2.462-.108Zm10.149 2.629h26.685c.964 0 1.744-.722 1.744-1.613 0-.89-.78-1.612-1.744-1.612l-26.685-.001c-.963 0-1.744.721-1.744 1.612 0 .892.78 1.614 1.744 1.614Zm26.685 4.248H39.992c-.963 0-1.744.722-1.744 1.613 0 .89.78 1.612 1.744 1.612h26.685c.964 0 1.744-.721 1.744-1.612 0-.891-.78-1.613-1.744-1.613Zm0 12.848H39.992c-.963 0-1.744.721-1.744 1.612 0 .891.78 1.613 1.744 1.613h26.685c.964 0 1.744-.722 1.744-1.613 0-.89-.78-1.612-1.744-1.612Zm0 7.473H39.992c-.963 0-1.744.722-1.744 1.613 0 .89.78 1.613 1.744 1.613h26.685c.964 0 1.744-.722 1.744-1.613 0-.89-.78-1.613-1.744-1.613Zm-36.834-7.055-7.675 6.441-2.49-2.305a1.845 1.845 0 0 0-2.467 0c-.68.63-.68 1.651 0 2.28l3.666 3.39c.34.315.787.473 1.233.473.419 0 .838-.138 1.17-.419l8.905-7.473c.713-.599.767-1.619.12-2.279-.647-.657-1.75-.707-2.462-.108Zm0 20.323-7.675 6.44-2.49-2.304a1.845 1.845 0 0 0-2.467 0c-.68.63-.68 1.65 0 2.28l3.666 3.39c.34.314.787.472 1.233.472.419 0 .838-.138 1.17-.418l8.905-7.474c.713-.599.767-1.618.12-2.278-.647-.657-1.75-.707-2.462-.108Zm71.293-35.35-16.019 25.66v32.282c0 3.282-2.886 5.952-6.435 5.952H6.436C2.887 100 0 97.33 0 94.048V14.213c0-3.281 2.887-5.952 6.437-5.952h16.317V7.253c0-.891.78-1.613 1.744-1.613h9.038C34.991 2.263 38.526 0 42.56 0c4.033 0 7.568 2.264 9.022 5.64h9.039c.963 0 1.744.722 1.744 1.613v1.01H78.68c3.549 0 6.436 2.669 6.436 5.951V34.34l3.177-5.09c.863-1.38 2.257-2.37 3.928-2.784a6.882 6.882 0 0 1 4.907.595l1.637.873c3.09 1.65 4.152 5.316 2.369 8.173h.001ZM62.365 11.49v2.81h14.482c.963 0 1.744.722 1.744 1.613v28.882l3.038-4.866V14.216c0-1.503-1.322-2.725-2.947-2.725H62.365Zm9.77 62.258-4.588-2.45v4.9l4.589-2.45Zm2.968-23.366V17.526H62.364v1.01c0 .89-.78 1.612-1.743 1.612H24.499c-.963 0-1.744-.722-1.744-1.612v-1.01H10.016V90.74h65.087v-14.85l-6.81 3.636c.082.186.126.388.126.601 0 .891-.78 1.613-1.743 1.613H39.99c-.963 0-1.744-.722-1.744-1.613 0-.89.78-1.612 1.744-1.612h24.07v-4.249H39.99c-.963 0-1.744-.721-1.744-1.612 0-.891.78-1.613 1.744-1.613h24.07v-2.533c0-.28.081-.564.233-.807l10.81-17.318Zm-48.86-33.458h32.633V8.869h-8.564c-.805 0-1.507-.51-1.695-1.235-.677-2.594-3.167-4.406-6.058-4.406-2.89 0-5.38 1.812-6.057 4.406-.188.723-.89 1.235-1.695 1.235h-8.564v8.055Zm55.387 50.43-3.039 4.867v20.132c0 .89-.78 1.613-1.743 1.613H8.27c-.963 0-1.744-.722-1.744-1.613V15.914c0-.89.78-1.612 1.744-1.612h14.482v-2.81H6.436c-1.625 0-2.947 1.222-2.947 2.725v79.832c0 1.503 1.322 2.726 2.947 2.726h72.246c1.625 0 2.947-1.223 2.947-2.726V67.355Zm16.778-34.948a2.777 2.777 0 0 0-1.385-1.675l-1.637-.873a3.167 3.167 0 0 0-2.26-.272c-.772.19-1.416.646-1.812 1.28l-23.128 37.05 6.8 3.63 23.13-37.05a2.56 2.56 0 0 0 .293-2.09h-.001Z" fill="#F0F0F0"/></svg>
